symbols/web/1k_plus/materialsymbolssharp/1k_plus_wght300grad200fill1_24px.svg

<svg xmlns="http://www.w3.org/2000/svg" height="24" width="24"><path d="M16.625 13.95h.875v-1.5H19v-.9h-1.5v-1.5h-.875v1.5h-1.5v.9h1.5Zm-5.75.95h1.175v-2.35l2.075 2.35h1.525l-2.525-2.925L15.65 9.1h-1.5l-2.1 2.35V9.1h-1.175Zm-3.1 0h1.25V9.1h-2.75v1.2h1.5ZM2.85 21.15V2.85h18.3v18.3Z"/></svg>

<svg xmlns="http://www.w3.org/2000/svg" height="24" width="24"><path d="M16.625 13.95H17.5V12.45H19V11.55H17.5V10.05H16.625V11.55H15.125V12.45H16.625ZM10.875 14.9H12.05V12.55L14.125 14.9H15.65L13.125 11.975L15.65 9.1H14.15L12.05 11.45V9.1H10.875ZM7.775 14.9H9.025V9.1H6.275V10.3H7.775ZM2.85 21.15V2.85H21.15V21.15Z"/></svg>
